icons/numix/16x16/status/audio-input-microphone-low-zero-panel.svg

<?xml version="1.0" encoding="UTF-8" standalone="no"?>
<svg
   xmlns:dc="http://purl.org/dc/elements/1.1/"
   xmlns:cc="http://creativecommons.org/ns#"
   xmlns:rdf="http://www.w3.org/1999/02/22-rdf-syntax-ns#"
   xmlns:svg="http://www.w3.org/2000/svg"
   xmlns="http://www.w3.org/2000/svg"
   xmlns:sodipodi="http://sodipodi.sourceforge.net/DTD/sodipodi-0.dtd"
   xmlns:inkscape="http://www.inkscape.org/namespaces/inkscape"
   width="16"
   height="16"
   viewBox="0 0 16 16"
   id="svg2"
   version="1.1"
   inkscape:version="0.48.5 r10040"
   sodipodi:docname="audio-input-microphone-low-zero-panel.svg">
  <metadata
     id="metadata38">
    <rdf:RDF>
      <cc:Work
         rdf:about="">
        <dc:format>image/svg+xml</dc:format>
        <dc:type
           rdf:resource="http://purl.org/dc/dcmitype/StillImage" />
      </cc:Work>
    </rdf:RDF>
  </metadata>
  <defs
     id="defs36" />
  <sodipodi:namedview
     pagecolor="#ffffff"
     bordercolor="#666666"
     borderopacity="1"
     objecttolerance="10"
     gridtolerance="10"
     guidetolerance="10"
     inkscape:pageopacity="0"
     inkscape:pageshadow="2"
     inkscape:window-width="1280"
     inkscape:window-height="998"
     id="namedview34"
     showgrid="false"
     inkscape:zoom="20.85965"
     inkscape:cx="4.1968769"
     inkscape:cy="9.6293558"
     inkscape:window-x="0"
     inkscape:window-y="0"
     inkscape:window-maximized="1"
     inkscape:current-layer="svg2" />
  <path
     style="fill:#ececec;fill-opacity:1"
     inkscape:connector-curvature="0"
     id="path22"
     d="m 5.574219,1.453125 c -1.335938,0 -2.421875,1.101563 -2.421875,2.457031 l 0,4.097656 c 0,1.355469 1.085937,2.453126 2.421875,2.453126 C 6.914062,10.460938 8,9.363281 8,8.007812 L 8,3.910156 C 8,2.554688 6.914062,1.453125 5.574219,1.453125 z" />
  <path
     style="fill:#ececec;fill-opacity:1"
     inkscape:connector-curvature="0"
     id="path24"
     d="m 0.726562,8 c 0,2.433594 1.746094,4.445312 4.042969,4.832031 l 0,0.894531 -0.808593,0 0,0.820313 3.230468,0 0,-0.820313 -0.808594,0 0,-0.894531 C 8.679688,12.445312 10.425781,10.433594 10.425781,8 L 8.808594,8 c 0,1.808594 -1.449219,3.273438 -3.234375,3.273438 C 3.789062,11.273438 2.34375,9.808594 2.34375,8 z" />
  <g
     id="g26"
     style="fill:#ececec;fill-opacity:1;opacity:0.4">
    <path
       inkscape:connector-curvature="0"
       id="path28"
       d="m 15.273438,3.089844 c 0,0.90625 -0.722657,1.636718 -1.617188,1.636718 -0.890625,0 -1.617188,-0.730468 -1.617188,-1.636718 0,-0.902344 0.726563,-1.636719 1.617188,-1.636719 0.894531,0 1.617188,0.734375 1.617188,1.636719 z"
       style="fill:#ececec;fill-opacity:1" />
    <path
       inkscape:connector-curvature="0"
       id="path30"
       d="m 15.273438,8 c 0,0.902344 -0.722657,1.636719 -1.617188,1.636719 -0.890625,0 -1.617188,-0.734375 -1.617188,-1.636719 0,-0.902344 0.726563,-1.636719 1.617188,-1.636719 0.894531,0 1.617188,0.734375 1.617188,1.636719 z"
       style="fill:#ececec;fill-opacity:1" />
    <path
       inkscape:connector-curvature="0"
       id="path32"
       d="m 15.273438,12.910156 c 0,0.902344 -0.722657,1.636719 -1.617188,1.636719 -0.890625,0 -1.617188,-0.734375 -1.617188,-1.636719 0,-0.90625 0.726563,-1.636718 1.617188,-1.636718 0.894531,0 1.617188,0.730468 1.617188,1.636718 z"
       style="fill:#ececec;fill-opacity:1" />
  </g>
</svg>

<svg width="16" xmlns="http://www.w3.org/2000/svg" height="16" viewBox="0 0 16 16" xmlns:xlink="http://www.w3.org/1999/xlink">
<g style="fill:#000">
<g style="fill-opacity:.302">
<path d="M 5.574219 2.183594 C 4.238281 2.183594 3.152344 3.28125 3.152344 4.636719 L 3.152344 8.734375 C 3.152344 10.089844 4.238281 11.1875 5.574219 11.1875 C 6.914062 11.1875 8 10.089844 8 8.734375 L 8 4.636719 C 8 3.28125 6.914062 2.183594 5.574219 2.183594 Z "/>
<path d="M 0.726562 8.726562 C 0.726562 11.160156 2.472656 13.171875 4.769531 13.558594 L 4.769531 14.453125 L 3.960938 14.453125 L 3.960938 15.273438 L 7.191406 15.273438 L 7.191406 14.453125 L 6.382812 14.453125 L 6.382812 13.558594 C 8.679688 13.171875 10.425781 11.160156 10.425781 8.726562 L 8.808594 8.726562 C 8.808594 10.535156 7.359375 12 5.574219 12 C 3.789062 12 2.34375 10.535156 2.34375 8.726562 Z "/>
</g>
<g style="fill-opacity:.122">
<path d="M 15.273438 3.816406 C 15.273438 4.722656 14.550781 5.453125 13.65625 5.453125 C 12.765625 5.453125 12.039062 4.722656 12.039062 3.816406 C 12.039062 2.914062 12.765625 2.183594 13.65625 2.183594 C 14.550781 2.183594 15.273438 2.914062 15.273438 3.816406 Z "/>
<path d="M 15.273438 8.726562 C 15.273438 9.632812 14.550781 10.363281 13.65625 10.363281 C 12.765625 10.363281 12.039062 9.632812 12.039062 8.726562 C 12.039062 7.824219 12.765625 7.089844 13.65625 7.089844 C 14.550781 7.089844 15.273438 7.824219 15.273438 8.726562 Z "/>
<path d="M 15.273438 13.636719 C 15.273438 14.539062 14.550781 15.273438 13.65625 15.273438 C 12.765625 15.273438 12.039062 14.539062 12.039062 13.636719 C 12.039062 12.734375 12.765625 12 13.65625 12 C 14.550781 12 15.273438 12.734375 15.273438 13.636719 Z "/>
</g>
</g>
<g style="fill:#dcdcdc">
<path d="M 5.574219 1.453125 C 4.238281 1.453125 3.152344 2.554688 3.152344 3.910156 L 3.152344 8.007812 C 3.152344 9.363281 4.238281 10.460938 5.574219 10.460938 C 6.914062 10.460938 8 9.363281 8 8.007812 L 8 3.910156 C 8 2.554688 6.914062 1.453125 5.574219 1.453125 Z "/>
<path d="M 0.726562 8 C 0.726562 10.433594 2.472656 12.445312 4.769531 12.832031 L 4.769531 13.726562 L 3.960938 13.726562 L 3.960938 14.546875 L 7.191406 14.546875 L 7.191406 13.726562 L 6.382812 13.726562 L 6.382812 12.832031 C 8.679688 12.445312 10.425781 10.433594 10.425781 8 L 8.808594 8 C 8.808594 9.808594 7.359375 11.273438 5.574219 11.273438 C 3.789062 11.273438 2.34375 9.808594 2.34375 8 Z "/>
<g style="fill-opacity:.4">
<path d="M 15.273438 3.089844 C 15.273438 3.996094 14.550781 4.726562 13.65625 4.726562 C 12.765625 4.726562 12.039062 3.996094 12.039062 3.089844 C 12.039062 2.1875 12.765625 1.453125 13.65625 1.453125 C 14.550781 1.453125 15.273438 2.1875 15.273438 3.089844 Z "/>
<path d="M 15.273438 8 C 15.273438 8.902344 14.550781 9.636719 13.65625 9.636719 C 12.765625 9.636719 12.039062 8.902344 12.039062 8 C 12.039062 7.097656 12.765625 6.363281 13.65625 6.363281 C 14.550781 6.363281 15.273438 7.097656 15.273438 8 Z "/>
<path d="M 15.273438 12.910156 C 15.273438 13.8125 14.550781 14.546875 13.65625 14.546875 C 12.765625 14.546875 12.039062 13.8125 12.039062 12.910156 C 12.039062 12.003906 12.765625 11.273438 13.65625 11.273438 C 14.550781 11.273438 15.273438 12.003906 15.273438 12.910156 Z "/>
</g>
</g>
</svg>
